X:1
T:FELICIDADE
T:FELICIDADE
T:arr. Antonio Célio
T:Lupicínio Rodrigues
T:Lupicínio Rodrigues
T:Lupicínio Rodrigues
T:Lupicínio Rodrigues
T:Lupicínio Rodrigues
C:Lupicínio Rodrigues
Z:Lupicínio Rodrigues
Z:Lupicínio Rodrigues
%%score 1 2
L:1/8
M:4/4
K:C
V:1 treble-8 nm="Violão" snm="Viol."
V:2 treble-8 nm="Violão acústico" snm="Viol."
V:1
 z4 z!mf![Q:1/4=96] EEF | G3 E e3 c | ABAG FGFE | D2 B,2 B3 A | GAGF EFED | C2 A,2 A3 G | %6
 FGFE DEDC | B,2 G,2 E3 D | C4 z EEF | G3 E e3 c | ABAG FGFE | D2 B,2 B3 A | GAGF EFED | %13
 C2 A,2 A3 G | FGFE DEDC | B,2 A,2 E3 D | C4 z GGA | AGGA AGGB | BAAB BAAB | BAAB BAA^G | %20
 G4 z GGA | AGGA AGGB | BAAB BAAB | BAAB BAA^G | G4 z eef | g3 e e'3 c' | abag fgfe | d2 B2 b3 a | %28
 gagf efed | c2 A2 a3 g | fgfe dedc | B2 G2 e3 d | c4 z eef | g3 e e'3 c' | abag fgfe | %35
 d2 B2 b3 a | gagf efed | c2 A2 a3 g | fgfe dedc | B2 G2 e3 d | c4 z gga | agga aggb | baab baab | %43
 baab baa^g | g4 z gga | agga aggb | baab baab | baab baa^g | g4 z eef | g3 e e'3 c' | abag fgfe | %51
 d2 B2 b3 a | gagf efed | c2 A2 a3 g | fgfe dedc | B2 G2 e3 d | c4 z eef | g3 e e'3 c' | %58
 abag fgfe | d2 B2 b3 a | gagf efed | c2 A2 a3 g | fgfe dedc | B2 G2 e3 d | c4 z4 |] %65
V:2
 z4 z4 |!mf! C [Gc]2 [Gc] G,[Gc][Gc][Gc] | A, [EA]2 [EA] C[EA][EA][EA] | %3
 B, [DG]2 [DG] G,[FG][FG][FG] | C [Gc]2 [Gc] ^G,[B,E][B,E][B,E] | A, [EA]2 [EA] C[EA][EA][EA] | %6
 F, [FA]2 [FA] D[Ad][Ad][Ad] | B, [DG]2 [DG] G,[FG][FG][FG] | C [Gc]2 [Gc] G,[FG][FG][FG] | %9
 C [Gc]2 [Gc] G,[Gc][Gc][Gc] | A, [EA]2 [EA] C[EA][EA][EA] | B, [DG]2 [DG] G,[FG][FG][FG] | %12
 C [Gc]2 [Gc] ^G,[B,E][B,E][B,E] | A, [EA]2 [EA] C[EA][EA][EA] | F, [FA]2 [FA] D[Ad][Ad][Ad] | %15
 B, [DG]2 [DG] G,[FG][FG][FG] | C [Gc]2 [Gc] G,[FG][FG][FG] | C [Gc]2 [Gc] G,[Gc][Gc][Gc] | %18
 A, [EA]2 [EA] C[EA][EA][EA] | B, [DG]2 [DG] G,[FG][FG][FG] | C [Gc]2 [Gc] G,[FG][FG][FG] | %21
 C [Gc]2 [Gc] G,[Gc][Gc][Gc] | B, [DG]2 [DG] G,[DG][DG][DG] | B, [FG]2 [FG] G,[FG][FG][FG] | %24
 C [Gc]2 [Gc] G,G,A,B, | C [Gc]2 [Gc] G,[Gc][Gc][Gc] | A, [EA]2 [EA] C[EA][EA][EA] | %27
 B, [DG]2 [DG] G,[FG][FG][FG] | C [Gc]2 [Gc] ^G,[B,E][B,E][B,E] | A, [EA]2 [EA] C[EA][EA][EA] | %30
 F, [FA]2 [FA] D[Ad][Ad][Ad] | B, [DG]2 [DG] G,[FG][FG][FG] | C [Gc]2 [Gc] G,G,A,B, | %33
 C [Gc]2 [Gc] G,[Gc][Gc][Gc] | A, [EA]2 [EA] C[EA][EA][EA] | B, [DG]2 [DG] G,[FG][FG][FG] | %36
 C [Gc]2 [Gc] ^G,[B,E][B,E][B,E] | A, [EA]2 [EA] C[EA][EA][EA] | F, [FA]2 [FA] A,[FA][FA][FA] | %39
 B, [DG]2 [DG] G,[FG][FG][FG] | C [Gc]2 [Gc] G,[FG][FG][FG] | C [Gc]2 [Gc] G,[Gc][Gc][Gc] | %42
 A, [EA]2 [EA] C[EA][EA][EA] | B, [DG]2 [DG] G,[FG][FG][FG] | C [Gc]2 [Gc] G,[FG][FG][FG] | %45
 C [Gc]2 [Gc] G,[Gc][Gc][Gc] | B, [DG]2 [DG] G,[DG][DG][DG] | B, [FG]2 [FG] G,[FG][FG][FG] | %48
 C [Gc]2 [Gc] G,G,A,B, | C [Gc]2 [Gc] G,[Gc][Gc][Gc] | A, [EA]2 [EA] C[EA][EA][EA] | %51
 B, [DG]2 [DG] G,[FG][FG][FG] | C [Gc]2 [Gc] ^G,[B,E][B,E][B,E] | A, [EA]2 [EA] C[EA][EA][EA] | %54
 F, [FA]2 [FA] D[Ad][Ad][Ad] | B, [DG]2 [DG] G,[FG][FG][FG] | C [Gc]2 [Gc] G,G,A,B, | %57
 C [Gc]2 [Gc] G,[Gc][Gc][Gc] | A, [EA]2 [EA] C[EA][EA][EA] | B, [DG]2 [DG] G,[FG][FG][FG] | %60
 C [Gc]2 [Gc] ^G,[B,E][B,E][B,E] | A, [EA]2 [EA] C[EA][EA][EA] | F, [FA]2 [FA] A,[FA][FA][FA] | %63
 B, [DG]2 [DG] G,[FG][FG][FG] | C [Gc]2 [Gc] [Gc]4 |] %65

